img/vector/icons-google-play-purple.svg

<svg width="23" height="25" viewBox="0 0 23 25" fill="none" xmlns="http://www.w3.org/2000/svg">
<path d="M3.57003 0.81311L12.6561 10.2768C12.8921 10.5223 13.2886 10.5223 13.5246 10.2768L15.3654 8.36047C15.6392 8.07727 15.5778 7.61471 15.2333 7.42118C10.4802 4.73075 4.58956 1.3984 3.57003 0.81311ZM0.818237 1.44088C0.714397 1.6816 0.648315 1.9412 0.648315 2.23385V22.8841C0.648315 23.1201 0.700236 23.3372 0.780477 23.5449L11.0088 12.8917C11.2354 12.6604 11.2354 12.2923 11.0088 12.0563L0.818237 1.44088ZM18.0983 9.18648C17.9709 9.20536 17.8482 9.26672 17.7538 9.36584L15.1672 12.0563C14.9406 12.2876 14.9406 12.6557 15.1672 12.8917L17.7302 15.5586C17.919 15.7568 18.2258 15.7993 18.4665 15.6624C20.2554 14.6476 21.4637 13.9679 21.4637 13.9679C22.0679 13.5997 22.4078 13.038 22.3983 12.4244C22.3889 11.825 22.0396 11.268 21.459 10.9423C21.3882 10.8999 20.2082 10.2343 18.4854 9.262C18.3674 9.1912 18.2305 9.1676 18.0983 9.18648ZM13.0904 14.4871C12.9299 14.4871 12.7741 14.5485 12.6514 14.6759L3.63611 24.0594C5.189 23.1767 10.7115 20.052 15.2097 17.5079C15.5542 17.3097 15.6156 16.8471 15.3418 16.5639L13.5246 14.6759C13.4066 14.5485 13.2509 14.4871 13.0904 14.4871Z" fill="#A658DB"/>
</svg>

<svg width="23" height="25" fill="none" xmlns="http://www.w3.org/2000/svg"><path d="m3.57.813 9.086 9.464a.604.604 0 0 0 .869 0l1.84-1.917a.597.597 0 0 0-.132-.939C10.48 4.731 4.59 1.398 3.57.813Zm-2.752.628c-.104.24-.17.5-.17.793v20.65c0 .236.052.453.132.66L11.01 12.893a.598.598 0 0 0 0-.836L.819 1.441Zm17.28 7.745a.598.598 0 0 0-.344.18l-2.587 2.69a.598.598 0 0 0 0 .836l2.563 2.667c.189.198.496.24.736.103 1.79-1.014 2.998-1.694 2.998-1.694.604-.368.944-.93.934-1.544-.01-.599-.358-1.156-.939-1.482-.07-.042-1.25-.708-2.974-1.68a.588.588 0 0 0-.387-.076Zm-5.008 5.301a.601.601 0 0 0-.439.189l-9.015 9.383c1.553-.882 7.075-4.007 11.574-6.551a.602.602 0 0 0 .132-.944l-1.817-1.888a.583.583 0 0 0-.435-.189Z" fill="#A658DB"/></svg>
